X:0371
T:Woo'd and Married and a'
M:9/8
L:1/8
Q:3/8=120
I: :: ::
Z:Jack Campin * www.campin.me.uk * 2009
K:G
g|d2c BAB G2A|Bcd dgB d2g|edc BAB GAB|E2e ef^d e2:|
g|def gag fed|Bcd dgB d2g|def gag fed|B2e ef^d e2
g|def gag fed|Bcd dgB d2g|edc BAB GAB|E2e ef^d e2:|
<end>
<start>
